X: 5
T: Missa Fors seulement / Agnus Dei
N: Derived from Pip1004e-Missa_Fors_seulement-Agnus.krn
C: Matthaeus Pipelare
%%abc-version 2.0
%%abcx-abcm2ps-target-version 5.9.1 (29 Sep 2008)
%%abc-creator hum2abc beta
%%abcx-conversion-date 2019/02/17 07:30:01
%%abc-edited-by Jesse Rodin
%%abc-edited-by Jesse Rodin 8/24/2013
%%abcx-initial-encoding-date 2013/08/26/
%%humdrum-veritas 3709265511
%%humdrum-veritas-data 971830399
%%linebreak <none>
%%barnumbers 0
L: 1/4
M: 2/1
Q: 1/2=120
V: 1 clef=treble-8
V: 2 clef=treble-8
V: 3 clef=bass
V: 4 clef=bass
V: 5 clef=bass
K: C
[V:1] z8 | 
[V:2] z8 | 
[V:3] D,8 | 
[V:4] z8 | 
[V:5] z8 | 
[V:1] z8 | 
[V:2] z8 | 
[V:3] F,4E,4 | 
[V:4] z8 | 
[V:5] z8 | 
[V:1] d8 | 
[V:2] z8 | 
[V:3] F,4G,4 | 
[V:4] z8 | 
[V:5] z8 | 
[V:1] f4e4 | 
[V:2] z8 | 
[V:3] A,6G,2 | 
[V:4] z8 | 
[V:5] z8 | 
[V:1] f4g4 | 
[V:2] z8 | 
[V:3] F,2E,D,E,4 | 
[V:4] z8 | 
[V:5] z8 | 
[V:1] a6g2 | 
[V:2] z8 | 
[V:3] D,2F,4E,2 | 
[V:4] z8 | 
[V:5] z8 | 
[V:1] f2edf2e2 | 
[V:2] z8 | 
[V:3] D,2C,B,,A,,4 | 
[V:4] z8 | 
[V:5] z8 | 
[V:1] d2c2B4 | 
[V:2] z8 | 
[V:3] z2A,4G,2 | 
[V:4] z8 | 
[V:5] z8 | 
[V:1] A4z2a2- | 
[V:2] z8 | 
[V:3] F,2A,3G,F,E, | 
[V:4] z8 | 
[V:5] z8 | 
[V:1] a2g2f2e2- | 
[V:2] z8 | 
[V:3] D,2E,2F,2G,2 | 
[V:4] z8 | 
[V:5] z8 | 
[V:1] e2dcB2c2 | 
[V:2] z8 | 
[V:3] E,2F,2G,2A,2- | 
[V:4] z8 | 
[V:5] z8 | 
[V:1] A2d4^c2 | 
[V:2] z8 | 
[V:3] A,2F,2E,4 | 
[V:4] z8 | 
[V:5] z8 | 
[V:1] d8 | 
[V:2] A8- | 
[V:3] D,8 | 
[V:4] z4z2A,2- | 
[V:5] z2D,4C,B,, | 
[V:1] z8 | 
[V:2] A8 | 
[V:3] z8 | 
[V:4] A,2G,F,E,2D,2 | 
[V:5] A,,3B,,C,2D,2- | 
[V:1] z8 | 
[V:2] A8 | 
[V:3] z8 | 
[V:4] E,4D,2F,2- | 
[V:5] D,2^C,2D,4 | 
[V:1] z8 | 
[V:2] A8 | 
[V:3] z8 | 
[V:4] F,E,D,C,D,4 | 
[V:5] z2D,,3E,,F,,G,, | 
[V:1] z8 | 
[V:2] A8 | 
[V:3] z2E,4F,2- | 
[V:4] C,8- | 
[V:5] A,,8- | 
[V:1] z8 | 
[V:2] A8 | 
[V:3] F,E,D,C,D,4 | 
[V:4] C,4A,,4 | 
[V:5] A,,4F,,4 | 
[V:1] z8 | 
[V:2] G8 | 
[V:3] E,8- | 
[V:4] B,,2C,2B,,2C,2- | 
[V:5] E,,8- | 
[V:1] z8 | 
[V:2] G8 | 
[V:3] E,8 | 
[V:4] C,2B,,A,,B,,4 | 
[V:5] E,,8 | 
[V:1] z8 | 
[V:2] A8- | 
[V:3] C,8 | 
[V:4] A,,8- | 
[V:5] F,,8 | 
[V:1] z8 | 
[V:2] A8 | 
[V:3] D,8- | 
[V:4] A,,8 | 
[V:5] D,,8- | 
[V:1] A8- | 
[V:2] z8 | 
[V:3] D,8 | 
[V:4] z4A,,4- | 
[V:5] D,,8- | 
[V:1] A8 | 
[V:2] z8 | 
[V:3] D,4A,,4 | 
[V:4] A,,4D,4 | 
[V:5] D,,8 | 
[V:1] c4B2A2- | 
[V:2] z8 | 
[V:3] z8 | 
[V:4] C,3D,E,2F,2- | 
[V:5] z8 | 
[V:1] A2G2F2ED | 
[V:2] z8 | 
[V:3] z4A,4- | 
[V:4] F,2E,2D,2C,B,, | 
[V:5] z8 | 
[V:1] E8- | 
[V:2] c8- | 
[V:3] A,4A,4 | 
[V:4] A,,8- | 
[V:5] z8 | 
[V:1] E8 | 
[V:2] c4c4 | 
[V:3] A,6G,F, | 
[V:4] A,,8 | 
[V:5] z8 | 
[V:1] z8 | 
[V:2] c8 | 
[V:3] E,4E,2F,2- | 
[V:4] z4A,4- | 
[V:5] A,,8- | 
[V:1] z4e4 | 
[V:2] c8 | 
[V:3] F,2E,D,E,4 | 
[V:4] A,4A,4 | 
[V:5] A,,8 | 
[V:1] f4f4 | 
[V:2] d8 | 
[V:3] D,8 | 
[V:4] F,4D,4 | 
[V:5] D,,8 | 
[V:1] e4e2d2- | 
[V:2] c4B4- | 
[V:3] z8 | 
[V:4] E,6F,2 | 
[V:5] A,,4z4 | 
[V:1] d2cBc2e2- | 
[V:2] B4A4- | 
[V:3] z8 | 
[V:4] G,4A,4 | 
[V:5] z8 | 
[V:1] e2dcB4 | 
[V:2] A4^G4 | 
[V:3] z8 | 
[V:4] E,8 | 
[V:5] z8 | 
[V:1] A8 | 
[V:2] A8- | 
[V:3] z4E,4- | 
[V:4] A,,8 | 
[V:5] z4A,,4- | 
[V:1] z8 | 
[V:2] A8 | 
[V:3] E,4F,4 | 
[V:4] z8 | 
[V:5] A,,4F,,4 | 
[V:1] z8 | 
[V:2] z8 | 
[V:3] D,2E,4F,2- | 
[V:4] z4z2A,,2- | 
[V:5] G,,4A,,4 | 
[V:1] z8 | 
[V:2] z8 | 
[V:3] F,E,D,4^C,2 | 
[V:4] A,,2B,,2G,,4 | 
[V:5] F,,2G,,2E,,4 | 
[V:1] z2a4gf | 
[V:2] A8- | 
[V:3] D,4z4 | 
[V:4] A,,3B,,C,2D,2 | 
[V:5] D,,4z2D,2- | 
[V:1] e4d4 | 
[V:2] A8 | 
[V:3] z8 | 
[V:4] A,,4z2A,2- | 
[V:5] D,2C,2D,2C,B,, | 
[V:1] z4z2f2 | 
[V:2] A8- | 
[V:3] z8 | 
[V:4] A,2G,F,E,2A,2- | 
[V:5] A,,3B,,C,2D,2 | 
[V:1] e2d4^c2 | 
[V:2] A8 | 
[V:3] z8 | 
[V:4] A,G,F,2E,4 | 
[V:5] C,2D,2A,,4 | 
[V:1] d8- | 
[V:2] A8 | 
[V:3] z4F,4- | 
[V:4] D,8- | 
[V:5] D,,8- | 
[V:1] d8- | 
[V:2] A8 | 
[V:3] F,4F,4 | 
[V:4] D,8- | 
[V:5] D,,8 | 
[V:1] d8 | 
[V:2] B8 | 
[V:3] G,4G,2G,2- | 
[V:4] D,8 | 
[V:5] G,,8- | 
[V:1] z8 | 
[V:2] G8 | 
[V:3] G,2F,E,D,2E,2 | 
[V:4] B,,8 | 
[V:5] G,,8 | 
[V:1] z4d4- | 
[V:2] A8- | 
[V:3] F,8 | 
[V:4] C,4D,4 | 
[V:5] F,,4D,,4 | 
[V:1] d4c4 | 
[V:2] A8 | 
[V:3] E,8 | 
[V:4] A,,4A,4- | 
[V:5] A,,8 | 
[V:1] d4f4- | 
[V:2] z8 | 
[V:3] D,8- | 
[V:4] A,4A,4 | 
[V:5] D,,8 | 
[V:1] f4e4 | 
[V:2] z8 | 
[V:3] D,4C,4 | 
[V:4] F,4G,4 | 
[V:5] z8 | 
[V:1] d2f4ed | 
[V:2] z8 | 
[V:3] D,6C,B,, | 
[V:4] F,4F,2A,2- | 
[V:5] z8 | 
[V:1] c8 | 
[V:2] A8 | 
[V:3] A,,8 | 
[V:4] A,2G,F,E,4- | 
[V:5] z4A,,4- | 
[V:1] z8 | 
[V:2] A6B2 | 
[V:3] z8 | 
[V:4] E,4F,4 | 
[V:5] A,,4D,4 | 
[V:1] z8 | 
[V:2] c4B4- | 
[V:3] z8 | 
[V:4] E,4F,4 | 
[V:5] C,4D,4 | 
[V:1] z8 | 
[V:2] B4A4- | 
[V:3] z8 | 
[V:4] G,4E,2F,2- | 
[V:5] E,4C,2D,2 | 
[V:1] z4d4 | 
[V:2] A4^G4 | 
[V:3] z8 | 
[V:4] F,E,E,4D,2 | 
[V:5] A,,2C,2B,,4 | 
[V:1] c2e3dcB | 
[V:2] A8- | 
[V:3] z4z2A,,2- | 
[V:4] E,D,C,B,,A,,2A,2- | 
[V:5] A,,4z2A,,2 | 
[V:1] A2d4^c2 | 
[V:2] A8- | 
[V:3] A,,2A,4A,2 | 
[V:4] A,2G,F,E,4 | 
[V:5] F,,2D,,2A,,4 | 
[V:1] d8- | 
[V:2] A8- | 
[V:3] F,2D,2F,3G, | 
[V:4] D,8- | 
[V:5] D,,8- | 
[V:1] d8 ||  
[V:2] A8 ||  
[V:3] A,8 ||  
[V:4] D,8 ||  
[V:5] D,,8 ||  
[V:1]  [K:C] [K:clef=treble-8][M:2/1]z8 | 
[V:2]  [K:C] [K:clef=treble-8][M:2/1]z8 | 
[V:3]  [K:C] [K:clef=bass][M:2/1]z8 | 
[V:4]  [K:C] [K:clef=bass][M:2/1]z8 | 
[V:5]  [K:C] [K:clef=bass][M:2/1]D,6C,B,, | 
[V:1] z8 | 
[V:2] z8 | 
[V:3] z8 | 
[V:4] A,6G,F, | 
[V:5] C,4D,4 | 
[V:1] z8 | 
[V:2] z8 | 
[V:3] z8 | 
[V:4] G,4A,4 | 
[V:5] B,,4A,,4 | 
[V:1] z8 | 
[V:2] z8 | 
[V:3] z8 | 
[V:4] F,4E,4- | 
[V:5] z2A,,4C,2- | 
[V:1] z8 | 
[V:2] z8 | 
[V:3] z8 | 
[V:4] E,2D,2F,2E,2- | 
[V:5] C,2B,,2A,,3G,, | 
[V:1] z8 | 
[V:2] z8 | 
[V:3] z8 | 
[V:4] E,D,D,4C,2 | 
[V:5] F,,2E,,D,,E,,4 | 
[V:1] z8 | 
[V:2] A8 | 
[V:3] z8 | 
[V:4] D,2F,4E,D, | 
[V:5] D,,4z2D,2- | 
[V:1] z8 | 
[V:2] A4A4 | 
[V:3] z4z2A,2- | 
[V:4] E,4D,4 | 
[V:5] D,2C,2D,2C,B,, | 
[V:1] z8 | 
[V:2] A4A4 | 
[V:3] A,2G,F,E,2F,2 | 
[V:4] z8 | 
[V:5] A,,2C,4D,2 | 
[V:1] z8 | 
[V:2] G4G4 | 
[V:3] G,2F,E,D,4 | 
[V:4] z4z2D,2 | 
[V:5] E,2D,C,B,,4 | 
[V:1] z8 | 
[V:2] A8 | 
[V:3] E,4z2E,2- | 
[V:4] C,2E,3D,C,B,, | 
[V:5] A,,8 | 
[V:1] z8 | 
[V:2] z8 | 
[V:3] E,F,G,A,B,2C2 | 
[V:4] A,,2E,4D,C, | 
[V:5] z8 | 
[V:1] z8 | 
[V:2] z8 | 
[V:3] B,2A,4G,2 | 
[V:4] D,C,B,,A,,B,,4 | 
[V:5] z8 | 
[V:1] z8 | 
[V:2] c6c2 | 
[V:3] A,2G,F,E,2F,2- | 
[V:4] A,,4z4 | 
[V:5] z4A,,4- | 
[V:1] z8 | 
[V:2] c8 | 
[V:3] F,2E,D,E,4 | 
[V:4] z8 | 
[V:5] A,,4A,,4 | 
[V:1] z8 | 
[V:2] d4c2B2- | 
[V:3] F,4E,3D, | 
[V:4] z4z2E,2- | 
[V:5] D,,E,,F,,G,,A,,2E,,2 | 
[V:1] z8 | 
[V:2] B2A4^G2 | 
[V:3] C,2A,,2B,,4 | 
[V:4] E,2D,2E,4 | 
[V:5] F,,4E,,4 | 
[V:1] z8 | 
[V:2] A8 | 
[V:3] A,,8 | 
[V:4] C,2C4B,A, | 
[V:5] z2E,4D,C, | 
[V:1] z8 | 
[V:2] z8 | 
[V:3] z8 | 
[V:4] B,2A,4G,2 | 
[V:5] D,C,B,,A,,B,,4 | 
[V:1] z8 | 
[V:2] A8 | 
[V:3] z4C,4 | 
[V:4] F,2E,D,E,4 | 
[V:5] A,,8 | 
[V:1] z8 | 
[V:2] A8 | 
[V:3] D,2F,4E,D, | 
[V:4] D,8 | 
[V:5] z8 | 
[V:1] z8 | 
[V:2] A4A4 | 
[V:3] C,2E,4F,2 | 
[V:4] z8 | 
[V:5] A,,8 | 
[V:1] z8 | 
[V:2] B4G4 | 
[V:3] G,4z4 | 
[V:4] z2D,4E,2 | 
[V:5] G,,8 | 
[V:1] z8 | 
[V:2] A8 | 
[V:3] z8 | 
[V:4] F,2E,D,C,2D,2- | 
[V:5] D,,4F,,4 | 
[V:1] z8 | 
[V:2] z8 | 
[V:3] z4G,4 | 
[V:4] D,2^C,B,,C,4 | 
[V:5] E,,8 | 
[V:1] z8 | 
[V:2] z4A4 | 
[V:3] F,2A,3G,F,E, | 
[V:4] D,8 | 
[V:5] D,,4z2D,2- | 
[V:1] z8 | 
[V:2] A3Bc2B2- | 
[V:3] F,2E,D,C,2F,2 | 
[V:4] z8 | 
[V:5] D,2C,B,,A,,2D,2 | 
[V:1] z8 | 
[V:2] B2A4^G2 | 
[V:3] E,2C,2D,4 | 
[V:4] z4z2D,2 | 
[V:5] C,2A,,2B,,4 | 
[V:1] z8 | 
[V:2] A8- | 
[V:3] E,D,C,B,,A,,2A,2- | 
[V:4] C,3D,E,2F,2 | 
[V:5] A,,4z2D,2 | 
[V:1] z8 | 
[V:2] A8- | 
[V:3] A,G,F,2E,4 | 
[V:4] E,2D,3^C,C,B,, | 
[V:5] C,2D,2A,,4 | 
[V:1] z8 ||  
[V:2] A8 ||  
[V:3] D,8 ||  
[V:4] D,8 ||  
[V:5] D,,8 ||  
[V:1]  [K:C] [K:clef=treble-8][M:2/1]z8 | 
[V:2]  [K:C] [K:clef=treble-8][M:2/1]z8 | 
[V:3]  [K:C] [K:clef=bass][M:2/1]z8 | 
[V:4]  [K:C] [K:clef=bass][M:2/1]z8 | 
[V:5]  [K:C] [K:clef=bass][M:2/1]A,,3B,,C,2D,2- | 
[V:1] z8 | 
[V:2] A8 | 
[V:3] z8 | 
[V:4] z4z2D,2- | 
[V:5] D,2C,B,,C,2D,2 | 
[V:1] z8 | 
[V:2] A4A4 | 
[V:3] z4z2F,2 | 
[V:4] D,E,F,G,A,2D,2 | 
[V:5] z8 | 
[V:1] z8 | 
[V:2] A4A4 | 
[V:3] D,2F,4E,D, | 
[V:4] z8 | 
[V:5] z8 | 
[V:1] z4z2e2 | 
[V:2] G4G4 | 
[V:3] E,4z4 | 
[V:4] z2E,3D,C,B,, | 
[V:5] z8 | 
[V:1] c2d2A2d2- | 
[V:2] A8 | 
[V:3] z2F,2E,2D,2 | 
[V:4] A,,2D,2C,2D,2 | 
[V:5] z8 | 
[V:1] d2c2d4 | 
[V:2] z8 | 
[V:3] E,4D,4 | 
[V:4] A,,4z2A,2- | 
[V:5] z8 | 
[V:1] A4z4 | 
[V:2] c6c2 | 
[V:3] z4z2A,2 | 
[V:4] A,G,F,2E,2F,2 | 
[V:5] z2A,3G,F,2 | 
[V:1] z8 | 
[V:2] c4c4 | 
[V:3] G,2F,2G,4 | 
[V:4] C,2F,4E,2 | 
[V:5] E,2F,2C,4 | 
[V:1] z8 | 
[V:2] d4c2B2- | 
[V:3] F,4z4 | 
[V:4] F,2E,D,E,2D,2 | 
[V:5] z4z2D,2 | 
[V:1] z2f4ed | 
[V:2] B2A4^G2 | 
[V:3] z8 | 
[V:4] E,2F,2D,4 | 
[V:5] C,2A,,2B,,4 | 
[V:1] c3de2f2 | 
[V:2] A8 | 
[V:3] z4z2F,2- | 
[V:4] E,4z4 | 
[V:5] A,,3B,,C,2D,2- | 
[V:1] d4e3f | 
[V:2] z8 | 
[V:3] F,2E,D,C,3D, | 
[V:4] z2A,4G,F, | 
[V:5] D,2C,B,,A,,4 | 
[V:1] g2e3dd2- | 
[V:2] z8 | 
[V:3] E,2C,2D,2C,B,, | 
[V:4] E,2G,2F,2E,D, | 
[V:5] z8 | 
[V:1] d2c2d2cB | 
[V:2] A8 | 
[V:3] A,,4z4 | 
[V:4] E,4D,2F,2- | 
[V:5] z4z2D,2 | 
[V:1] A4z4 | 
[V:2] A8 | 
[V:3] z2A,4G,F, | 
[V:4] F,E,D,2C,2D,2 | 
[V:5] C,2D,2A,,2D,2- | 
[V:1] z2a3gfe | 
[V:2] A4A4 | 
[V:3] E,4D,4 | 
[V:4] A,,4z2D,2- | 
[V:5] D,2^C,2D,4 | 
[V:1] d2g3fed | 
[V:2] B4G4 | 
[V:3] z8 | 
[V:4] D,2B,,2C,4 | 
[V:5] z8 | 
[V:1] c3de2f2 | 
[V:2] A8 | 
[V:3] z4z2A,2- | 
[V:4] A,,4z4 | 
[V:5] z2A,,4D,2 | 
[V:1] e2A2z2A2 | 
[V:2] z4A4 | 
[V:3] A,G,F,E,D,2F,2- | 
[V:4] z8 | 
[V:5] C,2D,2z4 | 
[V:1] c2d2e4 | 
[V:2] A3Bc2B2- | 
[V:3] F,2E,D,C,D,E,F, | 
[V:4] z8 | 
[V:5] z8 | 
[V:1] d2c2B4 | 
[V:2] B2A4^G2 | 
[V:3] G,2A,2E,4 | 
[V:4] z4z2E,2- | 
[V:5] z8 | 
[V:1] A8 | 
[V:2] A4z4 | 
[V:3] A,,8 | 
[V:4] E,2C,4D,2 | 
[V:5] z2A,,4F,,2 | 
[V:1] z8 | 
[V:2] E8 | 
[V:3] z4z2A,2- | 
[V:4] B,,2C,4B,,A,, | 
[V:5] G,,2A,,4G,,F,, | 
[V:1] z2e3dcB | 
[V:2] E4E4 | 
[V:3] A,2G,2A,4- | 
[V:4] B,,4A,,4 | 
[V:5] E,,4z4 | 
[V:1] A2c4d2 | 
[V:2] F6ED | 
[V:3] A,4F,4 | 
[V:4] z4z2A,,2- | 
[V:5] z2A,,4G,,F,, | 
[V:1] e4f4 | 
[V:2] C4D4 | 
[V:3] G,4F,4 | 
[V:4] A,,2G,,2A,,4 | 
[V:5] E,,4D,,4 | 
[V:1] f2d4e2- | 
[V:2] F4G4 | 
[V:3] A,4B,4 | 
[V:4] z4z2B,,2 | 
[V:5] D,4G,,4 | 
[V:1] edcBc4 | 
[V:2] E8 | 
[V:3] F,8 | 
[V:4] C,4A,,4 | 
[V:5] A,,8 | 
[V:1] d2f4ed | 
[V:2] D8 | 
[V:3] F,4F,G,A,B, | 
[V:4] z2A,2D,2F,2 | 
[V:5] D,,8 | 
[V:1] e2d4g2- | 
[V:2] z8 | 
[V:3] C2B,2G,4 | 
[V:4] C,2G,3F,E,2 | 
[V:5] z8 | 
[V:1] g2^f2g4 | 
[V:2] z8 | 
[V:3] A,4G,4 | 
[V:4] D,4z2E,2 | 
[V:5] z8 | 
[V:1] z2e2f2e2 | 
[V:2] A8- | 
[V:3] z2C4C2 | 
[V:4] F,2E,2C,4 | 
[V:5] z2A,,4A,,2 | 
[V:1] fea3gf2- | 
[V:2] A4A4 | 
[V:3] C4z2C2- | 
[V:4] z2C,2D,2F,2 | 
[V:5] A,,4F,,4 | 
[V:1] f2e2f4 | 
[V:2] G4F4 | 
[V:3] C2C2C4 | 
[V:4] C,4z4 | 
[V:5] C,4F,,2F,2- | 
[V:1] z4z2f2 | 
[V:2] A3Bc2B2- | 
[V:3] z2F,2E,2D,2 | 
[V:4] z8 | 
[V:5] F,E,D,2C,2D,2 | 
[V:1] e2c2d4 | 
[V:2] B2A4G2 | 
[V:3] E,2F,2D,4 | 
[V:4] z8 | 
[V:5] C,2A,,2B,,4 | 
[V:1] c2e3dd2- | 
[V:2] A4z4 | 
[V:3] E,4z4 | 
[V:4] z2E,2F,2E,D, | 
[V:5] A,,8- | 
[V:1] d2^c2d4- | 
[V:2] A8 | 
[V:3] z2A,2F,2A,2- | 
[V:4] E,4D,4- | 
[V:5] A,,4D,,4 | 
[V:1] d4z2d2- | 
[V:2] A4A4 | 
[V:3] A,G,F,E,D,2D2- | 
[V:4] D,8 | 
[V:5] z2D,3C,B,,A,, | 
[V:1] d2d2d4 | 
[V:2] B4B4 | 
[V:3] DCB,A,G,4 | 
[V:4] z2G,3F,E,D, | 
[V:5] G,,4z4 | 
[V:1] e3fg2a2- | 
[V:2] c8 | 
[V:3] z8 | 
[V:4] C,4z4 | 
[V:5] z2C,3B,,A,,G,, | 
[V:1] agf2e2d2 | 
[V:2] c6B2 | 
[V:3] z8 | 
[V:4] C,3D,E,2F,2 | 
[V:5] F,,G,,A,,B,,C,2D,2 | 
[V:1] e2f2gfed | 
[V:2] A4G4 | 
[V:3] z4z2D,2 | 
[V:4] E,2D,2z4 | 
[V:5] C,2D,2B,,4 | 
[V:1] c2d2f2e2- | 
[V:2] A4F2G2- | 
[V:3] E,2F,D,D2B,2 | 
[V:4] z8 | 
[V:5] A,,2D,4E,2 | 
[V:1] edd4^c2 | 
[V:2] GFEDE4 | 
[V:3] C2A,4A,2 | 
[V:4] z4z2A,2- | 
[V:5] C,2D,2A,,4 | 
[V:1] d8- | 
[V:2] D8- | 
[V:3] F,4z2F,2- | 
[V:4] A,2A,2F,2D,2 | 
[V:5] D,,8- | 
[V:1] d8- | 
[V:2] D8- | 
[V:3] F,2D,2F,3G, | 
[V:4] F,3G,A,4 | 
[V:5] D,,8- | 
[V:1] d8 |]  
[V:2] D8 |]  
[V:3] A,8 |]  
[V:4] A,,8 |]  
[V:5] D,,8 |]  
